Страховая/img/svg/emergency.svg

<svg width="105" height="113" viewBox="0 0 105 113" fill="none" xmlns="http://www.w3.org/2000/svg">
<path d="M49.809 9.91421C73.8535 12.1708 91.7062 27.4765 96.4472 52.6508C101.188 77.8252 82.6372 100.456 57.4414 105.201C32.2455 109.946 12.8203 67.8764 8.07932 42.702C3.33829 17.5277 22.7165 7.37158 49.809 9.91421Z" fill="#5FB5BF" fill-opacity="0.12"/>
<path d="M87.4427 67.3479L80.432 61.7305L72.4827 40.6252C71.8645 38.8766 70.2161 37.7032 68.3613 37.6919H64.5333V36.2252C64.5333 33.7951 62.5634 31.8252 60.1333 31.8252C57.7033 31.8252 55.7333 33.7951 55.7333 36.2252V37.6919H1.46667C0.6567 37.6919 0 38.3486 0 39.1585V80.2252C0 81.0352 0.6567 81.6919 1.46667 81.6919H11.8653C12.7039 86.4791 17.2647 89.6801 22.0519 88.8413C25.703 88.2017 28.5619 85.343 29.2013 81.6919H61.732C62.5706 86.4791 67.1313 89.6801 71.9185 88.8413C75.5696 88.2017 78.4285 85.343 79.068 81.6919H86.5333C87.3433 81.6919 88 81.0352 88 80.2252V68.4919C87.998 68.0456 87.7928 67.6245 87.4427 67.3479ZM71.588 46.4919L77.088 61.1585H62.5093C62.0072 61.1585 61.6 60.7514 61.6 60.2492V47.4012C61.6 46.899 62.0072 46.4919 62.5093 46.4919H71.588ZM58.6667 36.2252C58.6667 35.4152 59.3234 34.7585 60.1333 34.7585C60.9433 34.7585 61.6 35.4152 61.6 36.2252V37.6919H58.6667V36.2252ZM20.5333 86.0919C17.2933 86.0919 14.6667 83.4653 14.6667 80.2252C14.6667 76.9851 17.2933 74.3585 20.5333 74.3585C23.7734 74.3585 26.4 76.9851 26.4 80.2252C26.4 83.4653 23.7734 86.0919 20.5333 86.0919ZM70.4 86.0919C67.16 86.0919 64.5333 83.4653 64.5333 80.2252C64.5333 76.9851 67.16 74.3585 70.4 74.3585C73.6401 74.3585 76.2667 76.9851 76.2667 80.2252C76.2667 83.4653 73.6401 86.0919 70.4 86.0919ZM85.0667 72.8919H80.6667V75.8252H85.0667V78.7585H79.068C78.2294 73.9713 73.6687 70.7703 68.8815 71.6091C65.2304 72.2487 62.3715 75.1074 61.732 78.7585H29.2013C28.3628 73.9713 23.802 70.7703 19.0148 71.6091C15.3637 72.2487 12.5048 75.1074 11.8653 78.7585H2.93333V75.8252H10.2667V72.8919H2.93333V64.0919H55.7333V61.1585H2.93333V40.6252H68.3613C68.9751 40.6232 69.5251 41.0036 69.74 41.5785L70.488 43.5585H62.5093C60.3904 43.5666 58.6747 45.2822 58.6667 47.4012V60.2492C58.6747 62.3682 60.3904 64.0838 62.5093 64.0919H78.6427L85.0667 69.1959V72.8919Z" fill="#5FB5BF"/>
<path d="M60.1333 72.8918H30.8V75.8252H60.1333V72.8918Z" fill="#5FB5BF"/>
<path d="M22 78.7584H19.0667V81.6918H22V78.7584Z" fill="#5FB5BF"/>
<path d="M71.8667 78.7584H68.9333V81.6918H71.8667V78.7584Z" fill="#5FB5BF"/>
<path d="M21.12 45.3185L17.6 47.9585V43.5585H14.6667V47.9585L11.1467 45.3185L9.38666 47.6651L13.684 50.8918L9.38666 54.1185L11.1467 56.4651L14.6667 53.8251V58.2251H17.6V53.8251L21.12 56.4651L22.88 54.1185L18.5827 50.8918L22.88 47.6651L21.12 45.3185Z" fill="#5FB5BF"/>
<path d="M61.6 23.0251H58.6666V28.8918H61.6V23.0251Z" fill="#5FB5BF"/>
<path d="M55.3016 29.3145L50.9044 24.9172L48.8303 26.9914L53.2275 31.3886L55.3016 29.3145Z" fill="#5FB5BF"/>
<path d="M71.4323 26.9937L69.3582 24.9196L64.9609 29.3168L67.0351 31.3909L71.4323 26.9937Z" fill="#5FB5BF"/>
<path d="M55.7333 47.0785C55.7253 45.1377 54.1541 43.5665 52.2133 43.5585H44.5867C42.6459 43.5665 41.0747 45.1377 41.0667 47.0785V54.7051C41.0747 56.6459 42.6459 58.2171 44.5867 58.2251H52.2133C54.1541 58.2171 55.7253 56.6459 55.7333 54.7051V47.0785ZM52.8 47.0785V54.7051C52.8 55.0291 52.5373 55.2918 52.2133 55.2918H44.5867C44.2627 55.2918 44 55.0291 44 54.7051V47.0785C44 46.7545 44.2627 46.4918 44.5867 46.4918H52.2133C52.5373 46.4918 52.8 46.7545 52.8 47.0785Z" fill="#5FB5BF"/>
<path d="M22 25.9585H0V28.8918H22V25.9585Z" fill="#5FB5BF"/>
<path d="M26.4 31.8252H13.2V34.7585H26.4V31.8252Z" fill="#5FB5BF"/>
<path d="M8.80002 31.8252H4.40002V34.7585H8.80002V31.8252Z" fill="#5FB5BF"/>
<path d="M49.809 9.91421C73.8535 12.1708 91.7062 27.4765 96.4472 52.6508C101.188 77.8252 82.6372 100.456 57.4414 105.201C32.2455 109.946 12.8203 67.8764 8.07932 42.702C3.33829 17.5277 22.7165 7.37158 49.809 9.91421Z" fill="#5FB5BF" fill-opacity="0.12"/>
<path d="M87.4427 67.3479L80.432 61.7305L72.4827 40.6252C71.8645 38.8766 70.2161 37.7032 68.3613 37.6919H64.5333V36.2252C64.5333 33.7951 62.5634 31.8252 60.1333 31.8252C57.7033 31.8252 55.7333 33.7951 55.7333 36.2252V37.6919H1.46667C0.6567 37.6919 0 38.3486 0 39.1585V80.2252C0 81.0352 0.6567 81.6919 1.46667 81.6919H11.8653C12.7039 86.4791 17.2647 89.6801 22.0519 88.8413C25.703 88.2017 28.5619 85.343 29.2013 81.6919H61.732C62.5706 86.4791 67.1313 89.6801 71.9185 88.8413C75.5696 88.2017 78.4285 85.343 79.068 81.6919H86.5333C87.3433 81.6919 88 81.0352 88 80.2252V68.4919C87.998 68.0456 87.7928 67.6245 87.4427 67.3479ZM71.588 46.4919L77.088 61.1585H62.5093C62.0072 61.1585 61.6 60.7514 61.6 60.2492V47.4012C61.6 46.899 62.0072 46.4919 62.5093 46.4919H71.588ZM58.6667 36.2252C58.6667 35.4152 59.3234 34.7585 60.1333 34.7585C60.9433 34.7585 61.6 35.4152 61.6 36.2252V37.6919H58.6667V36.2252ZM20.5333 86.0919C17.2933 86.0919 14.6667 83.4653 14.6667 80.2252C14.6667 76.9851 17.2933 74.3585 20.5333 74.3585C23.7734 74.3585 26.4 76.9851 26.4 80.2252C26.4 83.4653 23.7734 86.0919 20.5333 86.0919ZM70.4 86.0919C67.16 86.0919 64.5333 83.4653 64.5333 80.2252C64.5333 76.9851 67.16 74.3585 70.4 74.3585C73.6401 74.3585 76.2667 76.9851 76.2667 80.2252C76.2667 83.4653 73.6401 86.0919 70.4 86.0919ZM85.0667 72.8919H80.6667V75.8252H85.0667V78.7585H79.068C78.2294 73.9713 73.6687 70.7703 68.8815 71.6091C65.2304 72.2487 62.3715 75.1074 61.732 78.7585H29.2013C28.3628 73.9713 23.802 70.7703 19.0148 71.6091C15.3637 72.2487 12.5048 75.1074 11.8653 78.7585H2.93333V75.8252H10.2667V72.8919H2.93333V64.0919H55.7333V61.1585H2.93333V40.6252H68.3613C68.9751 40.6232 69.5251 41.0036 69.74 41.5785L70.488 43.5585H62.5093C60.3904 43.5666 58.6747 45.2822 58.6667 47.4012V60.2492C58.6747 62.3682 60.3904 64.0838 62.5093 64.0919H78.6427L85.0667 69.1959V72.8919Z" fill="#5FB5BF"/>
<path d="M60.1333 72.8918H30.8V75.8252H60.1333V72.8918Z" fill="#5FB5BF"/>
<path d="M22 78.7584H19.0667V81.6918H22V78.7584Z" fill="#5FB5BF"/>
<path d="M71.8667 78.7584H68.9333V81.6918H71.8667V78.7584Z" fill="#5FB5BF"/>
<path d="M21.12 45.3185L17.6 47.9585V43.5585H14.6667V47.9585L11.1467 45.3185L9.38666 47.6651L13.684 50.8918L9.38666 54.1185L11.1467 56.4651L14.6667 53.8251V58.2251H17.6V53.8251L21.12 56.4651L22.88 54.1185L18.5827 50.8918L22.88 47.6651L21.12 45.3185Z" fill="#5FB5BF"/>
<path d="M61.6 23.0251H58.6666V28.8918H61.6V23.0251Z" fill="#5FB5BF"/>
<path d="M55.3016 29.3145L50.9044 24.9172L48.8303 26.9914L53.2275 31.3886L55.3016 29.3145Z" fill="#5FB5BF"/>
<path d="M71.4323 26.9937L69.3582 24.9196L64.9609 29.3168L67.0351 31.3909L71.4323 26.9937Z" fill="#5FB5BF"/>
<path d="M55.7333 47.0785C55.7253 45.1377 54.1541 43.5665 52.2133 43.5585H44.5867C42.6459 43.5665 41.0747 45.1377 41.0667 47.0785V54.7051C41.0747 56.6459 42.6459 58.2171 44.5867 58.2251H52.2133C54.1541 58.2171 55.7253 56.6459 55.7333 54.7051V47.0785ZM52.8 47.0785V54.7051C52.8 55.0291 52.5373 55.2918 52.2133 55.2918H44.5867C44.2627 55.2918 44 55.0291 44 54.7051V47.0785C44 46.7545 44.2627 46.4918 44.5867 46.4918H52.2133C52.5373 46.4918 52.8 46.7545 52.8 47.0785Z" fill="#5FB5BF"/>
<path d="M22 25.9585H0V28.8918H22V25.9585Z" fill="#5FB5BF"/>
<path d="M26.4 31.8252H13.2V34.7585H26.4V31.8252Z" fill="#5FB5BF"/>
<path d="M8.80002 31.8252H4.40002V34.7585H8.80002V31.8252Z" fill="#5FB5BF"/>
</svg>

<svg width="105" height="113" fill="none" xmlns="http://www.w3.org/2000/svg"><path d="M49.809 9.914c24.044 2.257 41.897 17.563 46.638 42.737 4.741 25.174-13.81 47.805-39.006 52.55-25.196 4.745-44.62-37.325-49.362-62.499C3.34 17.528 22.716 7.372 49.81 9.914z" fill="#5FB5BF" fill-opacity=".12"/><path d="M87.443 67.348l-7.011-5.617-7.95-21.106a4.4 4.4 0 00-4.12-2.933h-3.829v-1.467a4.4 4.4 0 10-8.8 0v1.467H1.467c-.81 0-1.467.657-1.467 1.466v41.067c0 .81.657 1.467 1.467 1.467h10.398a8.8 8.8 0 0017.336 0h32.531a8.8 8.8 0 0017.336 0h7.465c.81 0 1.467-.657 1.467-1.467V68.492a1.466 1.466 0 00-.557-1.144zM71.588 46.492l5.5 14.666H62.509a.91.91 0 01-.909-.909V47.401a.91.91 0 01.91-.91h9.078zM58.667 36.225a1.467 1.467 0 012.933 0v1.467h-2.933v-1.467zM20.533 86.092a5.867 5.867 0 110-11.733 5.867 5.867 0 010 11.733zm49.867 0a5.867 5.867 0 110-11.734 5.867 5.867 0 010 11.734zm14.667-13.2h-4.4v2.933h4.4v2.933h-5.999a8.8 8.8 0 00-17.336 0h-32.53a8.8 8.8 0 00-17.337 0H2.933v-2.933h7.334v-2.933H2.933v-8.8h52.8v-2.934h-52.8V40.625h65.428a1.467 1.467 0 011.379.953l.748 1.98h-7.979a3.857 3.857 0 00-3.842 3.843V60.25a3.857 3.857 0 003.842 3.843h16.134l6.424 5.104v3.696z" fill="#5FB5BF"/><path d="M60.133 72.892H30.8v2.933h29.333v-2.933zM22 78.758h-2.933v2.934H22v-2.934zm49.867 0h-2.934v2.934h2.934v-2.934zM21.12 45.319l-3.52 2.64v-4.4h-2.933v4.4l-3.52-2.64-1.76 2.346 4.297 3.227-4.297 3.226 1.76 2.347 3.52-2.64v4.4H17.6v-4.4l3.52 2.64 1.76-2.347-4.297-3.226 4.297-3.227-1.76-2.346zM61.6 23.025h-2.933v5.867H61.6v-5.867zm-6.298 6.289l-4.398-4.397-2.074 2.074 4.398 4.398 2.074-2.075zm16.13-2.32l-2.074-2.074-4.397 4.397 2.074 2.074 4.397-4.397zM55.733 47.078a3.534 3.534 0 00-3.52-3.52h-7.626a3.534 3.534 0 00-3.52 3.52v7.627a3.534 3.534 0 003.52 3.52h7.626a3.534 3.534 0 003.52-3.52v-7.627zm-2.933 0v7.627a.587.587 0 01-.587.587h-7.626a.587.587 0 01-.587-.587v-7.627c0-.324.263-.586.587-.586h7.626c.324 0 .587.263.587.587zM22 25.959H0v2.933h22v-2.933zm4.4 5.866H13.2v2.933h13.2v-2.933zm-17.6 0H4.4v2.933h4.4v-2.933z" fill="#5FB5BF"/><path d="M49.809 9.914c24.044 2.257 41.897 17.563 46.638 42.737 4.741 25.174-13.81 47.805-39.006 52.55-25.196 4.745-44.62-37.325-49.362-62.499C3.34 17.528 22.716 7.372 49.81 9.914z" fill="#5FB5BF" fill-opacity=".12"/><path d="M87.443 67.348l-7.011-5.617-7.95-21.106a4.4 4.4 0 00-4.12-2.933h-3.829v-1.467a4.4 4.4 0 10-8.8 0v1.467H1.467c-.81 0-1.467.657-1.467 1.466v41.067c0 .81.657 1.467 1.467 1.467h10.398a8.8 8.8 0 0017.336 0h32.531a8.8 8.8 0 0017.336 0h7.465c.81 0 1.467-.657 1.467-1.467V68.492a1.466 1.466 0 00-.557-1.144zM71.588 46.492l5.5 14.666H62.509a.91.91 0 01-.909-.909V47.401a.91.91 0 01.91-.91h9.078zM58.667 36.225a1.467 1.467 0 012.933 0v1.467h-2.933v-1.467zM20.533 86.092a5.867 5.867 0 110-11.733 5.867 5.867 0 010 11.733zm49.867 0a5.867 5.867 0 110-11.734 5.867 5.867 0 010 11.734zm14.667-13.2h-4.4v2.933h4.4v2.933h-5.999a8.8 8.8 0 00-17.336 0h-32.53a8.8 8.8 0 00-17.337 0H2.933v-2.933h7.334v-2.933H2.933v-8.8h52.8v-2.934h-52.8V40.625h65.428a1.467 1.467 0 011.379.953l.748 1.98h-7.979a3.857 3.857 0 00-3.842 3.843V60.25a3.857 3.857 0 003.842 3.843h16.134l6.424 5.104v3.696z" fill="#5FB5BF"/><path d="M60.133 72.892H30.8v2.933h29.333v-2.933zM22 78.758h-2.933v2.934H22v-2.934zm49.867 0h-2.934v2.934h2.934v-2.934zM21.12 45.319l-3.52 2.64v-4.4h-2.933v4.4l-3.52-2.64-1.76 2.346 4.297 3.227-4.297 3.226 1.76 2.347 3.52-2.64v4.4H17.6v-4.4l3.52 2.64 1.76-2.347-4.297-3.226 4.297-3.227-1.76-2.346zM61.6 23.025h-2.933v5.867H61.6v-5.867zm-6.298 6.289l-4.398-4.397-2.074 2.074 4.398 4.398 2.074-2.075zm16.13-2.32l-2.074-2.074-4.397 4.397 2.074 2.074 4.397-4.397zM55.733 47.078a3.534 3.534 0 00-3.52-3.52h-7.626a3.534 3.534 0 00-3.52 3.52v7.627a3.534 3.534 0 003.52 3.52h7.626a3.534 3.534 0 003.52-3.52v-7.627zm-2.933 0v7.627a.587.587 0 01-.587.587h-7.626a.587.587 0 01-.587-.587v-7.627c0-.324.263-.586.587-.586h7.626c.324 0 .587.263.587.587zM22 25.959H0v2.933h22v-2.933zm4.4 5.866H13.2v2.933h13.2v-2.933zm-17.6 0H4.4v2.933h4.4v-2.933z" fill="#5FB5BF"/></svg>
